**kern	**silbe	**kern	**silbe	**kern	**silbe
*ICvox	*	*ICvox	*	*ICvox	*
=1	=1	=1	=1	=1	=1
*E-:	*	*E-:	*	*E-:	*
*M4/4	*	*M4/4	*	*M4/4	*
*clefC3	*	*clefF4	*	*clefG2	*
2r	.	2r	.	1r	.
8r	.	8r	.	.	.
4b-	It's	4E- B- e-	It's	.	.
8b-	the	8E- B- e-	the	.	.
=2	=2	=2	=2	=2	=2
8b-	lit-	8G- B- d-	lit-	1r	.
8b-	-tle	8G- B- d-	-tle	.	.
4b-	old	4F A- d-	old	.	.
8b-	la-	8E- G- d-	la-	.	.
8b-	-dy	8E- G- d-	-dy	.	.
4b-	from	4D- G- d-	from	.	.
=3	=3	=3	=3	=3	=3
6b-	Pa-	6BB- F d	Pa-	1r	.
6b-	-sa-	6BB- F d	-sa-	.	.
8b-q	_	8BB-q 8FQ 8dQ	_	.	.
[6cc	-de	[6C [G [e-	-de	.	.
8cc]	_	8C] G] e-]	_	.	.
[4.b-	na!	[4.BB- [F [d	na	.	.
=4	=4	=4	=4	=4	=4
1b-_	_	1BB-_ F_ d_	_	1r	.
=5	=5	=5	=5	=5	=5
2b-]	_	2BB-] F] d]	_	1r	.
4r	_	2r	.	.	.
8r	.	.	.	.	.
8F	The	.	.	.	.
=6	=6	=6	=6	=6	=6
8E-	lit-	1r	.	1r	.
8E-	-tle	.	.	.	.
4F	old	.	.	.	.
8G	la-	.	.	.	.
8G	-dy	.	.	.	.
4B-	from	.	.	.	.
=7	=7	=7	=7	=7	=7
6d-	Pa-	1r	.	1r	.
6c	-sa-	.	.	.	.
[6G	-de	.	.	.	.
8G]	_	.	.	.	.
4.B-	na!	.	.	.	.
=8	=8	=8	=8	=8	=8
1r	.	4E- G B-	Go,	1r	.
.	.	8E- G B-	gran-	.	.
.	.	8E- G B-	-ny,	.	.
.	.	4E- G B-	go,	.	.
.	.	8E- G B-	gran-	.	.
.	.	8E- G B-	-ny,	.	.
=9	=9	=9	=9	=9	=9
2r	.	8E- A- c	go	1r	.
.	.	8E- A- c	gran-	.	.
.	.	8E- A- c	-ny	.	.
.	.	[8E- [G [B-	go!	.	.
8r	.	8E-] G] B-]	_	.	.
4G	Has	8r	_	.	.
.	.	4r	.	.	.
8F	a	.	.	.	.
=10	=10	=10	=10	=10	=10
8E-	pret-	1r	.	1r	.
8E-	-ty	.	.	.	.
8F	lit-	.	.	.	.
8F	-tle	.	.	.	.
8G	flo-	.	.	.	.
8G	-wer-	.	.	.	.
8B-	-bed	.	.	.	.
8B-	of	.	.	.	.
=11	=11	=11	=11	=11	=11
8d-	white	1r	.	1r	.
4c	gar-	.	.	.	.
[8G	-den-	.	.	.	.
8G]	_	.	.	.	.
[4.B-	-ias!	.	.	.	.
=12	=12	=12	=12	=12	=12
4B-]	_	4D F B-	Go,	1r	.
4r	_	8D F B-	gran-	.	.
.	.	8D F B-	-ny,	.	.
2r	.	4D F B-	go,	.	.
.	.	8D F B-	gran-	.	.
.	.	8D F B-	-ny,	.	.
=13	=13	=13	=13	=13	=13
2r	.	8C F A	go	1r	.
.	.	8C F A	gran-	.	.
.	.	8C F A	-ny	.	.
.	.	[8BB- [F [B-	go!	.	.
4r	.	8BB-] F] B-]	_	.	.
.	.	8r	_	.	.
8r	.	4r	.	.	.
8F	But	.	.	.	.
=14	=14	=14	=14	=14	=14
4B-	parked	1r	.	1r	.
8B-	in	.	.	.	.
8B-	a	.	.	.	.
8e-	ric-	.	.	.	.
8d	-ke-	.	.	.	.
8d	-ty	.	.	.	.
[8c	old	.	.	.	.
=15	=15	=15	=15	=15	=15
4c]	_	1r	.	1r	.
8A-	ga-	.	.	.	.
[8A-	-rage,	.	.	.	.
8A-]	_	.	.	.	.
4A-	is	.	.	.	.
8A-	a	.	.	.	.
=16	=16	=16	=16	=16	=16
4c	brand	4A- f	brand	1r	.
4c	new	4A- f	new	.	.
8d-	shi-	8A- e-	shi-	.	.
8d-	-ny	8A- e-	-ny	.	.
4d-	red	4A- e-	red	.	.
=17	=17	=17	=17	=17	=17
8B-	su-	8F d	su-	1r	.
8B-	-per	8F d	-per	.	.
4c	Stock	4F e-	Stock	.	.
[2B-	Dodge!	[2F [d	Dodge	.	.
=18	=18	=18	=18	=18	=18
2B-]	_	2F] d]	_	2r	.
*clefF4	*	*	*	*	*
4r	_	2r	.	4r	.
8r	.	.	.	4B-	Ooh!
8BB-	And	.	.	.	.
=19	=19	=19	=19	=19	=19
8E-	ev-	1r	.	[1b-	_
8E-	-'ry-	.	.	.	.
8C	-bo-	.	.	.	.
8BB-	-dy's	.	.	.	.
8E-	sa-	.	.	.	.
8E-	-yin'	.	.	.	.
8C	that	.	.	.	.
8BB-	there's	.	.	.	.
=20	=20	=20	=20	=20	=20
8G	no-	1r	.	4b-]	_
8G	-bo-	.	.	.	.
8B-	-dy	.	.	4cc	_
8B-q	_	.	.	.	.
[8c	mea	.	.	.	.
8c]	_	.	.	4b-	_
8B-	ner	.	.	.	.
8G	than	.	.	4e-	_
8F	the	.	.	.	.
=21	=21	=21	=21	=21	=21
8E-	lit-	1r	.	[1g	_
8E-	-tle	.	.	.	.
8C	old	.	.	.	.
8BB-	_	.	.	.	.
8E-	la-	.	.	.	.
8E-	-dy	.	.	.	.
4F	from	.	.	.	.
=22	=22	=22	=22	=22	=22
8G	Pa-	2r	.	2g]	_
4B-	-sa-	.	.	.	.
[8c	-de	.	.	.	.
8c]	_	4r	.	4r	_
8B-	na!	.	.	.	.
4r	_	8r	.	4e-	Ooh!
.	.	8c	She	.	.
=23	=23	=23	=23	=23	=23
1r	.	4E- A- c	drives	[1ee-	_
.	.	8D- A- c	re-	.	.
.	.	8D- A- c	-al	.	.
.	.	4C A- c	fast	.	.
.	.	8BB- G B-	and	.	.
.	.	8BB- G B-	she	.	.
=24	=24	=24	=24	=24	=24
*clefC3	*	*	*	*	*
2r	.	6C A- c e-	drives	4ee-]	_
.	.	8Cq 8A-Q 8cQ 8e-Q	_	.	.
.	.	6BB- G B- d-	real	.	.
.	.	.	.	4cc	_
.	.	6C A- c e-	hard!	.	.
8r	.	2r	_	4ff	_
4B-	She's	.	.	.	.
.	.	.	.	4ee-	_
8B-	the	.	.	.	.
=25	=25	=25	=25	=25	=25
8c	ter-	1r	.	[1b-	_
8c	-ror	.	.	.	.
4B-	of	.	.	.	.
8G	Co-	.	.	.	.
8F	-lo-	.	.	.	.
8E-	-ra-	.	.	.	.
8F	-do	.	.	.	.
=26	=26	=26	=26	=26	=26
8G	Bou-	2r	.	1b-]	_
4F	-le-	.	.	.	.
[8E-	-vard!	.	.	.	.
8E-]	_	8r	.	.	.
4b-	It's	4E- B- e-	It's	.	.
8b-	the	8E- B- e-	the	.	.
=27	=27	=27	=27	=27	=27
8b-	lit-	8G- B- d-	lit-	1r	.
8b-	-tle	8G- B- d-	-tle	.	.
4b-	old	4F A- d-	old	.	.
8b-	la-	8E- G- d-	la-	.	.
8b-	-dy	8E- G- d-	-dy	.	.
4b-	from	4D- G- d-	from	.	.
=28	=28	=28	=28	=28	=28
6b-	Pa-	6BB- F d	Pa-	1r	.
6b-	-sa-	6BB- F d	-sa-	.	.
8b-q	_	8BB-q 8FQ 8dQ	_	.	.
[6cc	-de	[6C [G [e-	-de	.	.
8cc]	_	8C] G] e-]	_	.	.
[4.b-	na!	[4.BB- [F [d	na!	.	.
=29	=29	=29	=29	=29	=29
1b-_	_	1BB-_ F_ d_	_	1r	.
=30	=30	=30	=30	=30	=30
2b-]	_	2BB-] F] d]	_	1r	.
8r	_	2r	_	.	.
4G	If	.	.	.	.
8F	you	.	.	.	.
=31	=31	=31	=31	=31	=31
8E-	see	1r	.	1r	.
8E-	her	.	.	.	.
8F	on	.	.	.	.
8F	the	.	.	.	.
4G	street,	.	.	.	.
4B-	don't	.	.	.	.
=32	=32	=32	=32	=32	=32
8d-	try	1r	.	1r	.
4c	to	.	.	.	.
[4G	choose	.	.	.	.
8G]	_	.	.	.	.
4B-	her!	.	.	.	.
=33	=33	=33	=33	=33	=33
1r	.	4E- G B-	Go,	1r	.
.	.	8E- G B-	gran-	.	.
.	.	8E- G B-	-ny,	.	.
.	.	4E- G B-	go,	.	.
.	.	8E- G B-	gran-	.	.
.	.	8E- G B-	-ny,	.	.
=34	=34	=34	=34	=34	=34
2r	.	8E- A- c	go	1r	.
.	.	8E- A- c	gran-	.	.
.	.	8E- A- c	-ny	.	.
.	.	[8E- [G [B-	go!	.	.
8r	.	8E-] G] B-]	_	.	.
4r	.	8r	_	.	.
.	.	4r	.	.	.
8F	You	.	.	.	.
=35	=35	=35	=35	=35	=35
4E-	might	1r	.	1r	.
8F	drive	.	.	.	.
8F	a	.	.	.	.
8G	go-	.	.	.	.
8G	-er	.	.	.	.
8B-	but	.	.	.	.
8B-	you'll	.	.	.	.
=36	=36	=36	=36	=36	=36
8d-	ne-	1r	.	1r	.
4c	-ver	.	.	.	.
[8G	lose	.	.	.	.
8G]	_	.	.	.	.
[4.B-	her!	.	.	.	.
=37	=37	=37	=37	=37	=37
4B-]	_	4D F B-	Go,	1r	.
4r	_	8D F B-	gran-	.	.
.	.	8D F B-	-ny,	.	.
2r	.	4D F B-	go,	.	.
.	.	8D F B-	gran-	.	.
.	.	8D F B-	-ny,	.	.
=38	=38	=38	=38	=38	=38
2r	.	8C F A	go	1r	.
.	.	8C F A	gran-	.	.
.	.	8C F A	-ny	.	.
.	.	[8BB- [F [B-	go!	.	.
8r	.	8BB-] F] B-]	_	.	.
4B-	Well,	8r	_	.	.
.	.	4r	.	.	.
8B-	she's	.	.	.	.
=39	=39	=39	=39	=39	=39
8B-	gon-	1r	.	1r	.
8B-	-na	.	.	.	.
8B-	get	.	.	.	.
8B-	a	.	.	.	.
8e-	tic-	.	.	.	.
8d	-ket	.	.	.	.
4d-	soo	.	.	.	.
=40	=40	=40	=40	=40	=40
8c	_	1r	.	1r	.
8c	ner	.	.	.	.
8A-	or	.	.	.	.
[8A-	la	.	.	.	.
8A-]	_	.	.	.	.
8A-	ter	.	.	.	.
8A-	cuz	.	.	.	.
8A-	she	.	.	.	.
=41	=41	=41	=41	=41	=41
4c	can't	4A- f	can't	1r	.
8c	keep	8A- f	keep	.	.
8c	her	8A- f	her	.	.
8d-	foot	8A- e-	foot	.	.
8d-	off	8A- e-	off	.	.
8d-	the	8A- e-	the	.	.
8d-	ac-	8A- e-	ac-	.	.
=42	=42	=42	=42	=42	=42
8B-	-ce-	8F d	-ce-	1r	.
8B-	-le-	8F d	-le-	.	.
4c	-ra-	4F e-	-ra-	.	.
[2B-	-tor!	[2F [d	-tor	.	.
=43	=43	=43	=43	=43	=43
2B-]	_	2F] d]	_	2r	.
*clefF4	*	*	*	*	*
4r	_	2r	.	4r	.
8r	.	.	.	4B-	Ooh!
8BB-	And	.	.	.	.
=44	=44	=44	=44	=44	=44
8E-	ev-	1r	.	[1b-	_
8E-	-'ry-	.	.	.	.
8C	-bo-	.	.	.	.
8BB-	-dy's	.	.	.	.
8E-	sa-	.	.	.	.
8E-	-yin'	.	.	.	.
8C	that	.	.	.	.
8BB-	there's	.	.	.	.
=45	=45	=45	=45	=45	=45
8G	no-	1r	.	4b-]	_
8G	-bo-	.	.	.	.
8B-	-dy	.	.	4cc	_
8B-q	_	.	.	.	.
[8c	mea	.	.	.	.
8c]	_	.	.	4b-	_
8B-	ner	.	.	.	.
8G	than	.	.	4e-	_
8F	the	.	.	.	.
=46	=46	=46	=46	=46	=46
8E-	lit-	1r	.	[1g	_
8E-	-tle	.	.	.	.
8C	old	.	.	.	.
8BB-	_	.	.	.	.
8E-	la-	.	.	.	.
8E-	-dy	.	.	.	.
4F	from	.	.	.	.
=47	=47	=47	=47	=47	=47
8G	Pa-	2r	.	2g]	_
4B-	-sa-	.	.	.	.
[8c	-de	.	.	.	.
8c]	_	4r	.	4r	_
8B-	na!	.	.	.	.
4r	_	8r	.	4e-	Ooh!
.	.	8c	She	.	.
=48	=48	=48	=48	=48	=48
1r	.	4E- A- c	drives	[1ee-	_
.	.	8D- A- c	re-	.	.
.	.	8D- A- c	-al	.	.
.	.	4C A- c	fast	.	.
.	.	8BB- G B-	and	.	.
.	.	8BB- G B-	she	.	.
=49	=49	=49	=49	=49	=49
*clefC3	*	*	*	*	*
2r	.	6C A- c e-	drives	4ee-]	_
.	.	8Cq 8A-Q 8cQ 8e-Q	_	.	.
.	.	6BB- G B- d-	real	.	.
.	.	.	.	4cc	_
.	.	6C A- c e-	hard!	.	.
8r	.	2r	_	4ff	_
4B-	She's	.	.	.	.
.	.	.	.	4ee-	_
8B-	the	.	.	.	.
=50	=50	=50	=50	=50	=50
8c	ter-	1r	.	[1b-	_
8c	-ror	.	.	.	.
4B-	of	.	.	.	.
8G	Co-	.	.	.	.
8F	-lo-	.	.	.	.
8E-	-ra-	.	.	.	.
8F	-do	.	.	.	.
=51	=51	=51	=51	=51	=51
8G	Bou-	2r	.	1b-]	_
4F	-le-	.	.	.	.
[8E-	-vard!	.	.	.	.
8E-]	_	8r	.	.	.
4b-	It's	4E- B- e-	It's	.	.
8b-	the	8E- B- e-	the	.	.
=52	=52	=52	=52	=52	=52
8b-	lit-	8G- B- d-	lit-	1r	.
8b-	-tle	8G- B- d-	-tle	.	.
4b-	old	4F A- d-	old	.	.
8b-	la-	8E- G- d-	la-	.	.
8b-	-dy	8E- G- d-	-dy	.	.
4b-	from	4D- G- d-	from	.	.
=53	=53	=53	=53	=53	=53
6b-	Pa-	6BB- F d	Pa-	1r	.
6b-	-sa-	6BB- F d	-sa-	.	.
8b-q	_	8BB-q 8FQ 8dQ	_	.	.
[6cc	-de	[6C [G [e-	-de	.	.
8cc]	_	8C] G] e-]	_	.	.
[4.b-	na	[4.BB- [F [d	na	.	.
=54	=54	=54	=54	=54	=54
1b-]	_	1BB-] F] d]	_	1r	.
=55	=55	=55	=55	=55	=55
2a	_	2AA E c#	_	1r	.
2r	.	2r	.	.	.
=56	=56	=56	=56	=56	=56
*F:	*	*F:	*	*F:	*
1r	.	1r	.	1r	.
=57	=57	=57	=57	=57	=57
1r	.	1r	.	1r	.
=58	=58	=58	=58	=58	=58
1r	.	4F A c	Go,	1r	.
.	.	8F A c	gran-	.	.
.	.	8F A c	-ny,	.	.
.	.	4F A c	go,	.	.
.	.	8F A c	gran-	.	.
.	.	8F A c	-ny,	.	.
=59	=59	=59	=59	=59	=59
1r	.	8F B- d	go	1r	.
.	.	8F B- d	gran-	.	.
.	.	8F B- d	-ny	.	.
.	.	[8F [A [c	go!	.	.
.	.	8F] A] c]	_	.	.
.	.	8r	_	.	.
.	.	4r	.	.	.
=60	=60	=60	=60	=60	=60
1r	.	1r	.	1r	.
=61	=61	=61	=61	=61	=61
1r	.	1r	.	1r	.
=62	=62	=62	=62	=62	=62
1r	.	4E G c	Go,	1r	.
.	.	8E G c	gran-	.	.
.	.	8E G c	-ny,	.	.
.	.	4E G c	go,	.	.
.	.	8E G c	gran-	.	.
.	.	8E G c	-ny,	.	.
=63	=63	=63	=63	=63	=63
2r	.	8D G B	go	1r	.
.	.	8D G B	gran-	.	.
.	.	8D G B	-ny	.	.
.	.	[8C [G [c	go!	.	.
4r	.	8C] G] c]	_	.	.
.	.	8r	_	.	.
8r	.	4r	.	.	.
8B#	The	.	.	.	.
=64	=64	=64	=64	=64	=64
4c	guys	1r	.	1r	.
8c	come	.	.	.	.
8c	to	.	.	.	.
8f	race	.	.	.	.
8e	her	.	.	.	.
4e	from	.	.	.	.
=65	=65	=65	=65	=65	=65
4d	miles	1r	.	1r	.
8B-	a-	.	.	.	.
[8B-	-round,	.	.	.	.
8B-]	_	.	.	.	.
4B-	but	.	.	.	.
8B-	she'll	.	.	.	.
=66	=66	=66	=66	=66	=66
8d	give	8B- g	give	1r	.
8d	them	8B- g	them	.	.
8d	a	8B- g	a	.	.
[8e-	length,	[8B- [f	length,	.	.
8e-]	_	8B-] f]	_	.	.
4e-	then	4B- f	then	.	.
8e-	she'll	8B- f	she'll	.	.
=67	=67	=67	=67	=67	=67
8c	shut	8G e	shut	1r	.
8c	them	[8G e	them	.	.
8d	_	8G] f	_	.	.
[8c	down!	[8G [e	down	.	.
2c_	_	2G e	down!	.	.
=68	=68	=68	=68	=68	=68
4.c]	_	4.G] e]	_	2r	.
8r	_	8r	_	.	.
*clefF4	*	*	*	*	*
4r	.	2r	.	4r	.
8r	.	.	.	4c	Ooh!
8C	_	.	.	.	.
=69	=69	=69	=69	=69	=69
8F	ev-	1r	.	[1cc	_
8F	-'ry-	.	.	.	.
8D	-bo-	.	.	.	.
8C	-dy's	.	.	.	.
8F	sa-	.	.	.	.
8F	-yin'	.	.	.	.
8D	that	.	.	.	.
8C	there's	.	.	.	.
=70	=70	=70	=70	=70	=70
8A	no-	1r	.	4cc]	_
8A	-bo-	.	.	.	.
8c	-dy	.	.	4dd	_
8cq	_	.	.	.	.
[8d	mea	.	.	.	.
8d]	_	.	.	4cc	_
8c	ner	.	.	.	.
8A	than	.	.	4f	_
8G	the	.	.	.	.
=71	=71	=71	=71	=71	=71
8F	lit-	1r	.	[1a	_
8F	-tle	.	.	.	.
8D	old	.	.	.	.
8C	_	.	.	.	.
8F	la-	.	.	.	.
8F	-dy	.	.	.	.
4G	from	.	.	.	.
=72	=72	=72	=72	=72	=72
8A	Pa-	2r	.	2a]	_
4c	-sa-	.	.	.	.
[8d	-de	.	.	.	.
8d]	_	4r	.	4r	_
8c	na!	.	.	.	.
4r	_	8r	.	4f	Ooh!
.	.	8d	She	.	.
=73	=73	=73	=73	=73	=73
1r	.	4F B- d	drives	[1ff	_
.	.	8E- B- d	re-	.	.
.	.	8E- B- d	-al	.	.
.	.	4D B- d	fast	.	.
.	.	8C A c	and	.	.
.	.	8C A c	she	.	.
=74	=74	=74	=74	=74	=74
*clefC3	*	*	*	*	*
2r	.	6BB- B- d f	drives	4ff]	_
.	.	8Dq 8B-Q 8dQ 8fQ	_	.	.
.	.	6C A c e-	real	.	.
.	.	.	.	4dd	_
.	.	6D B- d f	hard!	.	.
8r	.	2r	_	4gg	_
4c	She's	.	.	.	.
.	.	.	.	4ff	_
8c	the	.	.	.	.
=75	=75	=75	=75	=75	=75
8d	ter-	1r	.	[1cc	_
8d	-ror	.	.	.	.
4c	of	.	.	.	.
8A	Co-	.	.	.	.
8G	-lo-	.	.	.	.
8F	-ra-	.	.	.	.
8G	-do	.	.	.	.
=76	=76	=76	=76	=76	=76
8A	Bou-	1r	.	1cc]	_
4G	-le-	.	.	.	.
[8F	-vard!	.	.	.	.
8F]	_	.	.	.	.
4cc	It's	.	.	.	.
8cc	the	.	.	.	.
=77	=77	=77	=77	=77	=77
8cc	lit-	8A- c e-	lit-	1r	.
8cc	-tle	8A- c e-	-tle	.	.
4cc	old	4G B- e-	old	.	.
8cc	la-	8F A- e	la-	.	.
8cc	-dy	8F A- e	-dy	.	.
4cc	from	4E A- e	from	.	.
=78	=78	=78	=78	=78	=78
*D-:	*	*D-:	*	*D-:	*
6dd-	Pa-	6D- A- f	Pa-	1r	.
6dd-	-sa-	6D- A- f	-sa-	.	.
8dd-q	_	8D-q 8A-Q 8fQ	_	.	.
[6ee-	-de	[6E- [B- [g-	-de	.	.
8ee-]	_	8E-] B-] g-]	_	.	.
[4.dd-	na	[4.D- [A- [f	na	.	.
=79	=79	=79	=79	=79	=79
2.dd-_	_	2D-] A-] f]	_	1r	.
.	.	2r	.	.	.
8dd-]	_	.	.	.	.
8r	.	.	.	.	.
=80	=80	=80	=80	=80	=80
1r	.	4D- A- f	Go,	1r	.
.	.	8D- A- f	gran-	.	.
.	.	8D- A- f	-ny,	.	.
.	.	4D- A- f	go,	.	.
.	.	8D- A- f	gran-	.	.
.	.	8D- A- f	-ny,	.	.
=81	=81	=81	=81	=81	=81
1r	.	8D- B- g-	go	1r	.
.	.	8D- B- g-	gran-	.	.
.	.	8D- B- g-	-ny	.	.
.	.	[8D- [A- [f	go	.	.
.	.	4D-] A-] f]	_	.	.
.	.	4r	.	.	.
=82	=82	=82	=82	=82	=82
1r	.	4C A- e-	Go,	1r	.
.	.	8C A- e-	gran-	.	.
.	.	8C A- e-	-ny,	.	.
.	.	4C A- e-	go,	.	.
.	.	8C A- e-	gran-	.	.
.	.	8C A- e-	-ny,	.	.
=83	=83	=83	=83	=83	=83
1r	.	8BB- G e-	go	1r	.
.	.	8BB- G e-	gran-	.	.
.	.	8BB- G e-	-ny	.	.
.	.	[8C [A- [e-	go	.	.
.	.	4C] A-] e-]	_	.	.
.	.	4r	.	.	.
=84	=84	=84	=84	=84	=84
1r	.	4D- A- f	Go,	1r	.
.	.	8D- A- f	gran-	.	.
.	.	8D- A- f	-ny,	.	.
.	.	4D- A- f	go,	.	.
.	.	8D- A- f	gran-	.	.
.	.	8D- A- f	-ny,	.	.
=85	=85	=85	=85	=85	=85
1r	.	8D- B- g-	go	1r	.
.	.	8D- B- g-	gran-	.	.
.	.	8D- B- g-	-ny	.	.
.	.	[8D- [A- [f	go	.	.
.	.	4D-] A-] f]	_	.	.
.	.	4r	.	.	.
=86	=86	=86	=86	=86	=86
1r	.	4C A- e-	Go,	1r	.
.	.	8C A- e-	gran-	.	.
.	.	8C A- e-	-ny,	.	.
.	.	4C A- e-	go,	.	.
.	.	8C A- e-	gran-	.	.
.	.	8C A- e-	-ny,	.	.
=87	=87	=87	=87	=87	=87
1r	.	8BB- G e-	go	1r	.
.	.	8BB- G e-	gran-	.	.
.	.	8BB- G e-	-ny	.	.
.	.	[8C [A- [e-	go	.	.
.	.	4C] A-] e-]	_	.	.
.	.	4r	.	.	.
=88	=88	=88	=88	=88	=88
1r	.	4D- A- f	Go,	1r	.
.	.	8D- A- f	gran-	.	.
.	.	8D- A- f	-ny,	.	.
.	.	4D- A- f	go,	.	.
.	.	8D- A- f	gran-	.	.
.	.	8D- A- f	-ny,	.	.
=89	=89	=89	=89	=89	=89
1r	.	8D- B- g-	go	1r	.
.	.	8D- B- g-	gran-	.	.
.	.	8D- B- g-	-ny	.	.
.	.	[8D- [A- [f	go	.	.
.	.	4D-] A-] f]	_	.	.
.	.	4r	.	.	.
=90	=90	=90	=90	=90	=90
1r	.	4C A- e-	Go,	1r	.
.	.	8C A- e-	gran-	.	.
.	.	8C A- e-	-ny,	.	.
.	.	4C A- e-	go,	.	.
.	.	8C A- e-	gran-	.	.
.	.	8C A- e-	-ny,	.	.
=91	=91	=91	=91	=91	=91
1r	.	8BB- G e-	go	1r	.
.	.	8BB- G e-	gran-	.	.
.	.	8BB- G e-	-ny	.	.
.	.	[8C [A- [e-	go	.	.
.	.	4C] A-] e-]	_	.	.
.	.	4r	.	.	.
=92	=92	=92	=92	=92	=92
1r	.	4D- A- f	Go,	1r	.
.	.	8D- A- f	gran-	.	.
.	.	8D- A- f	-ny,	.	.
.	.	4D- A- f	go,	.	.
.	.	8D- A- f	gran-	.	.
.	.	8D- A- f	-ny,	.	.
=93	=93	=93	=93	=93	=93
1r	.	8D- B- g-	go	1r	.
.	.	8D- B- g-	gran-	.	.
.	.	8D- B- g-	-ny	.	.
.	.	[8D- [A- [f	go	.	.
.	.	4D-] A-] f]	_	.	.
.	.	4r	.	.	.
=94	=94	=94	=94	=94	=94
1r	.	4C A- e-	Go,	1r	.
.	.	8C A- e-	gran-	.	.
.	.	8C A- e-	-ny,	.	.
.	.	4C A- e-	go,	.	.
.	.	8C A- e-	gran-	.	.
.	.	8C A- e-	-ny,	.	.
=95	=95	=95	=95	=95	=95
1r	.	8BB- G e-	go	1r	.
.	.	8BB- G e-	gran-	.	.
.	.	8BB- G e-	-ny	.	.
.	.	[8C [A- [e-	go	.	.
.	.	4C] A-] e-]	_	.	.
.	.	4r	.	.	.
=96	=96	=96	=96	=96	=96
1r	.	4D- A- f	Go,	1r	.
.	.	8D- A- f	gran-	.	.
.	.	8D- A- f	-ny,	.	.
.	.	4D- A- f	go,	.	.
.	.	8D- A- f	gran-	.	.
.	.	8D- A- f	-ny,	.	.
=97	=97	=97	=97	=97	=97
1r	.	8D- B- g-	go	1r	.
.	.	8D- B- g-	gran-	.	.
.	.	8D- B- g-	-ny	.	.
.	.	[8D- [A- [f	go	.	.
.	.	4D-] A-] f]	_	.	.
.	.	4r	.	.	.
=98	=98	=98	=98	=98	=98
1r	.	4C A- e-	Go,	1r	.
.	.	8C A- e-	gran-	.	.
.	.	8C A- e-	-ny,	.	.
.	.	4C A- e-	go,	.	.
.	.	8C A- e-	gran-	.	.
.	.	8C A- e-	-ny,	.	.
=99	=99	=99	=99	=99	=99
1r	.	8BB- G e-	go	1r	.
.	.	8BB- G e-	gran-	.	.
.	.	8BB- G e-	-ny	.	.
.	.	[8C [A- [e-	go	.	.
.	.	4C] A-] e-]	_	.	.
.	.	4r	.	.	.
*-	*-	*-	*-	*-	*-
!!!ENC: Nathaniel Condit-Schultz